svg/color/eurl.svg

<svg xmlns="http://www.w3.org/2000/svg" width="200" height="200" viewBox="0 0 200 200"><path fill="#f8f9fa" fill-rule="evenodd" d="M66.66 55.165c-2.045 9.534-4.278 20.121-4.964 23.526-.685 3.406-1.481 6.428-1.77 6.716s-4.722 1.648-9.854 3.021-9.52 2.687-9.752 2.919c-.55.55 3.608 16.928 4.543 17.893.394.406 3.736-.124 7.427-1.18l6.71-1.919.15 3.43c.082 1.886.195 3.989.25 4.674.057.709-2.481 1.928-5.9 2.834-3.3.874-5.988 2.002-5.974 2.505.09 3.189 4.1 16.719 5.066 17.09.645.247 3.813-.241 7.04-1.085 3.698-.968 5.995-1.165 6.21-.535.189.55 2.049 3.159 4.135 5.798 12.258 15.508 33.727 22.889 53.023 18.231 6.747-1.628 17.582-7.145 22.666-11.54l3.786-3.273-4.174-5.385c-2.296-2.962-5.435-6.842-6.976-8.624l-2.802-3.238-5.803 3.956c-3.191 2.176-7.466 4.418-9.5 4.983-5.369 1.491-14.293 1.268-19.253-.482C96.661 133.969 90 129.536 90 128.196c0-.386 8.55-2.925 19-5.643s19.006-5.417 19.014-5.998c.037-2.959-4.468-17.553-5.415-17.542-.605.007-9.403 2.227-19.552 4.934-10.149 2.706-18.811 4.699-19.25 4.428-.438-.271-.797-2.254-.797-4.406 0-4.474-2.106-3.559 23.872-10.373 7.355-1.929 13.572-3.706 13.814-3.949.501-.501-3.697-16.769-4.607-17.854-.327-.389-6.779.922-14.338 2.914-7.56 1.992-13.914 3.436-14.12 3.208s.762-5.888 2.15-12.578l2.525-12.163-2.398-4.837c-2.746-5.539-7.657-8.769-14.959-9.839l-4.561-.668z"/><path fill="#3657be" fill-rule="evenodd" d="M82.66.985c-39.075 7.066-69.508 35.55-80.42 75.27-2.443 8.893-2.443 38.597 0 47.49 9.087 33.076 31.727 58.617 62.091 70.045 11.93 4.49 21.516 6.14 35.669 6.14 20.35 0 36.938-4.653 53.509-15.011 15.445-9.653 30.897-27.283 38.009-43.364 3.214-7.267 7.482-21.875 7.482-25.608 0-1.556.45-3.107 1-3.447.584-.361 1-6.03 1-13.618 0-7.15-.389-12.76-.864-12.466-.475.293-1.125-1.679-1.446-4.382-.924-7.803-6.397-22.833-11.471-31.501-14.116-24.115-34.291-39.764-61.356-47.593C120.134 1.283 115.061.732 103 .46 94.475.267 85.322.503 82.66.985m-16 54.18c-2.045 9.534-4.278 20.121-4.964 23.526-.685 3.406-1.481 6.428-1.77 6.716s-4.722 1.648-9.854 3.021-9.52 2.687-9.752 2.919c-.55.55 3.608 16.928 4.543 17.893.394.406 3.736-.124 7.427-1.18l6.71-1.919.15 3.43c.082 1.886.195 3.989.25 4.674.057.709-2.481 1.928-5.9 2.834-3.3.874-5.988 2.002-5.974 2.505.09 3.189 4.1 16.719 5.066 17.09.645.247 3.813-.241 7.04-1.085 3.698-.968 5.995-1.165 6.21-.535.189.55 2.049 3.159 4.135 5.798 12.258 15.508 33.727 22.889 53.023 18.231 6.747-1.628 17.582-7.145 22.666-11.54l3.786-3.273-4.174-5.385c-2.296-2.962-5.435-6.842-6.976-8.624l-2.802-3.238-5.803 3.956c-3.191 2.176-7.466 4.418-9.5 4.983-5.369 1.491-14.293 1.268-19.253-.482C96.661 133.969 90 129.536 90 128.196c0-.386 8.55-2.925 19-5.643s19.006-5.417 19.014-5.998c.037-2.959-4.468-17.553-5.415-17.542-.605.007-9.403 2.227-19.552 4.934-10.149 2.706-18.811 4.699-19.25 4.428-.438-.271-.797-2.254-.797-4.406 0-4.474-2.106-3.559 23.872-10.373 7.355-1.929 13.572-3.706 13.814-3.949.501-.501-3.697-16.769-4.607-17.854-.327-.389-6.779.922-14.338 2.914-7.56 1.992-13.914 3.436-14.12 3.208s.762-5.888 2.15-12.578l2.525-12.163-2.398-4.837c-2.746-5.539-7.657-8.769-14.959-9.839l-4.561-.668zM.392 100c0 7.425.157 10.463.35 6.75s.192-9.787 0-13.5c-.193-3.713-.35-.675-.35 6.75"/></svg>

<svg xmlns="http://www.w3.org/2000/svg" width="200" height="200" viewBox="0 0 200 200" version="1.1"><path d="M 66.660 55.165 C 64.615 64.699, 62.382 75.286, 61.696 78.691 C 61.011 82.097, 60.215 85.119, 59.926 85.407 C 59.638 85.695, 55.204 87.055, 50.072 88.428 C 44.940 89.801, 40.552 91.115, 40.320 91.347 C 39.770 91.897, 43.928 108.275, 44.863 109.240 C 45.257 109.646, 48.599 109.116, 52.290 108.060 L 59 106.141 59.150 109.571 C 59.232 111.457, 59.345 113.560, 59.400 114.245 C 59.457 114.954, 56.919 116.173, 53.500 117.079 C 50.200 117.953, 47.512 119.081, 47.526 119.584 C 47.616 122.773, 51.626 136.303, 52.592 136.674 C 53.237 136.921, 56.405 136.433, 59.632 135.589 C 63.330 134.621, 65.627 134.424, 65.842 135.054 C 66.031 135.604, 67.891 138.213, 69.977 140.852 C 82.235 156.360, 103.704 163.741, 123 159.083 C 129.747 157.455, 140.582 151.938, 145.666 147.543 L 149.452 144.270 145.278 138.885 C 142.982 135.923, 139.843 132.043, 138.302 130.261 L 135.500 127.023 129.697 130.979 C 126.506 133.155, 122.231 135.397, 120.197 135.962 C 114.828 137.453, 105.904 137.230, 100.944 135.480 C 96.661 133.969, 90 129.536, 90 128.196 C 90 127.810, 98.550 125.271, 109 122.553 C 119.450 119.834, 128.006 117.136, 128.014 116.555 C 128.051 113.596, 123.546 99.002, 122.599 99.013 C 121.994 99.020, 113.196 101.240, 103.047 103.947 C 92.898 106.653, 84.236 108.646, 83.797 108.375 C 83.359 108.104, 83 106.121, 83 103.969 C 83 99.495, 80.894 100.410, 106.872 93.596 C 114.227 91.667, 120.444 89.890, 120.686 89.647 C 121.187 89.146, 116.989 72.878, 116.079 71.793 C 115.752 71.404, 109.300 72.715, 101.741 74.707 C 94.181 76.699, 87.827 78.143, 87.621 77.915 C 87.415 77.687, 88.383 72.027, 89.771 65.337 L 92.296 53.174 89.898 48.337 C 87.152 42.798, 82.241 39.568, 74.939 38.498 L 70.378 37.830 66.660 55.165" stroke="none" fill="#f8f9fa" fill-rule="evenodd"/><path d="M 82.660 0.985 C 43.585 8.051, 13.152 36.535, 2.240 76.255 C -0.203 85.148, -0.203 114.852, 2.240 123.745 C 11.327 156.821, 33.967 182.362, 64.331 193.790 C 76.261 198.280, 85.847 199.930, 100 199.930 C 120.350 199.930, 136.938 195.277, 153.509 184.919 C 168.954 175.266, 184.406 157.636, 191.518 141.555 C 194.732 134.288, 199 119.680, 199 115.947 C 199 114.391, 199.450 112.840, 200 112.500 C 200.584 112.139, 201 106.470, 201 98.882 C 201 91.732, 200.611 86.122, 200.136 86.416 C 199.661 86.709, 199.011 84.737, 198.690 82.034 C 197.766 74.231, 192.293 59.201, 187.219 50.533 C 173.103 26.418, 152.928 10.769, 125.863 2.940 C 120.134 1.283, 115.061 0.732, 103 0.460 C 94.475 0.267, 85.322 0.503, 82.660 0.985 M 66.660 55.165 C 64.615 64.699, 62.382 75.286, 61.696 78.691 C 61.011 82.097, 60.215 85.119, 59.926 85.407 C 59.638 85.695, 55.204 87.055, 50.072 88.428 C 44.940 89.801, 40.552 91.115, 40.320 91.347 C 39.770 91.897, 43.928 108.275, 44.863 109.240 C 45.257 109.646, 48.599 109.116, 52.290 108.060 L 59 106.141 59.150 109.571 C 59.232 111.457, 59.345 113.560, 59.400 114.245 C 59.457 114.954, 56.919 116.173, 53.500 117.079 C 50.200 117.953, 47.512 119.081, 47.526 119.584 C 47.616 122.773, 51.626 136.303, 52.592 136.674 C 53.237 136.921, 56.405 136.433, 59.632 135.589 C 63.330 134.621, 65.627 134.424, 65.842 135.054 C 66.031 135.604, 67.891 138.213, 69.977 140.852 C 82.235 156.360, 103.704 163.741, 123 159.083 C 129.747 157.455, 140.582 151.938, 145.666 147.543 L 149.452 144.270 145.278 138.885 C 142.982 135.923, 139.843 132.043, 138.302 130.261 L 135.500 127.023 129.697 130.979 C 126.506 133.155, 122.231 135.397, 120.197 135.962 C 114.828 137.453, 105.904 137.230, 100.944 135.480 C 96.661 133.969, 90 129.536, 90 128.196 C 90 127.810, 98.550 125.271, 109 122.553 C 119.450 119.834, 128.006 117.136, 128.014 116.555 C 128.051 113.596, 123.546 99.002, 122.599 99.013 C 121.994 99.020, 113.196 101.240, 103.047 103.947 C 92.898 106.653, 84.236 108.646, 83.797 108.375 C 83.359 108.104, 83 106.121, 83 103.969 C 83 99.495, 80.894 100.410, 106.872 93.596 C 114.227 91.667, 120.444 89.890, 120.686 89.647 C 121.187 89.146, 116.989 72.878, 116.079 71.793 C 115.752 71.404, 109.300 72.715, 101.741 74.707 C 94.181 76.699, 87.827 78.143, 87.621 77.915 C 87.415 77.687, 88.383 72.027, 89.771 65.337 L 92.296 53.174 89.898 48.337 C 87.152 42.798, 82.241 39.568, 74.939 38.498 L 70.378 37.830 66.660 55.165 M 0.392 100 C 0.392 107.425, 0.549 110.463, 0.742 106.750 C 0.934 103.037, 0.934 96.963, 0.742 93.250 C 0.549 89.537, 0.392 92.575, 0.392 100" stroke="none" fill="#3657be" fill-rule="evenodd"/></svg>
